assets/svg/1f45a.svg

<svg xmlns="http://www.w3.org/2000/svg" viewBox="0 0 64 64" enable-background="new 0 0 64 64"><path fill="#ff99b6" d="m1.699 24.09l-1.095-12.779c0 0 8.652-3.563 11.733-4.082 4.839-.814 14.02-2.041 19.663-2.041s14.824 1.227 19.663 2.041c3.081.519 11.733 4.082 11.733 4.082l-1.096 12.779-12.06.933c-.205 13.653 1.875 30.522 2.577 36.1 0 0-8.912.358-20.807.47-.002 0-.007 0-.009 0-.004 0-.009.002-.011 0-11.893-.111-20.807-.47-20.807-.47.702-5.572 2.782-22.444 2.577-36.1l-12.06-.933"/><g fill="#ff78a5"><path d="m31.99 12.357h1.17v49.24h-1.17z"/><path d="m26.25 5.597h11.496v6.958h-11.496z"/></g><path fill="#ff99b6" d="m21.799 0h20.402v6.552h-20.402z"/><g fill="#ffd2df"><path d="m42.2 0l3.87 6.171-7.362 11.553-6.708-5.145z"/><path d="M21.799 0 17.93 6.171 25.292 17.724 32 12.579z"/></g><ellipse fill="#ff78a5" cx="28.934" cy="20.398" rx="2.606" ry="2.64"/><ellipse fill="#fff3f7" cx="28.934" cy="20.09" rx="2.502" ry="2.331"/><ellipse fill="#ff78a5" cx="28.934" cy="28.902" rx="2.606" ry="2.64"/><ellipse fill="#fff3f7" cx="28.934" cy="28.594" rx="2.502" ry="2.331"/><ellipse fill="#ff78a5" cx="28.934" cy="37.41" rx="2.606" ry="2.64"/><ellipse fill="#fff3f7" cx="28.934" cy="37.1" rx="2.502" ry="2.331"/><ellipse fill="#ff78a5" cx="28.934" cy="45.912" rx="2.606" ry="2.64"/><ellipse fill="#fff3f7" cx="28.934" cy="45.604" rx="2.502" ry="2.33"/><ellipse fill="#ff78a5" cx="28.934" cy="54.42" rx="2.606" ry="2.641"/><ellipse fill="#fff3f7" cx="28.934" cy="54.11" rx="2.502" ry="2.331"/><g fill="#ffd2df"><path d="m63.999 11.1l-3.329-1.08-1.19 14.541 3.56-.301z"/><path d="M-.001 11.1 3.33 10.02 4.515 24.561.957 24.26z"/><path d="m31.99 59.05c.002.004.007 0 .011 0 .002 0 .007 0 .009 0 10.729-.163 19.213-1.649 20.564-2.543.066 1.918.147 3.543.242 4.783 0 0-8.912 2.526-20.807 2.708-.002 0-.007 0-.009 0-.004 0-.009.003-.011 0-11.893-.182-20.807-2.708-20.807-2.708.095-1.238.176-2.865.242-4.783 1.351.892 9.838 2.38 20.566 2.543"/></g><path fill="#ff99b6" d="m31.99 59.07h1.17v4.929h-1.17z"/></svg>

<svg xmlns="http://www.w3.org/2000/svg" width="64" height="64" viewBox="0 0 64 64"><path fill="#FF99B6" d="M1.699 24.093L.604 11.314s8.652-3.563 11.733-4.082C17.176 6.418 26.357 5.191 32 5.191s14.824 1.227 19.663 2.041c3.081.519 11.733 4.082 11.733 4.082L62.3 24.093l-12.062.933c-.205 13.653 1.875 30.522 2.577 36.1 0 0-8.912.358-20.807.47h-.009c-.004 0-.009.002-.011 0-11.893-.111-20.807-.47-20.807-.47.702-5.572 2.782-22.444 2.577-36.1l-12.059-.933z"/><path fill="#FF78A5" d="M31.99 12.357h1.17v49.238h-1.17z"/><path fill="#FF78A5" d="M26.252 5.597h11.496v6.958H26.252z"/><path fill="#FF99B6" d="M21.799 0h20.402v6.552H21.799z"/><path fill="#FFD2DF" d="M42.201 0l3.869 6.171-7.362 11.553L32 12.579zM21.799 0L17.93 6.171l7.362 11.553L32 12.579z"/><ellipse fill="#FF78A5" cx="28.934" cy="20.398" rx="2.606" ry="2.64"/><ellipse fill="#FFF3F7" cx="28.934" cy="20.09" rx="2.502" ry="2.331"/><ellipse fill="#FF78A5" cx="28.934" cy="28.902" rx="2.606" ry="2.64"/><ellipse fill="#FFF3F7" cx="28.934" cy="28.594" rx="2.502" ry="2.331"/><ellipse fill="#FF78A5" cx="28.934" cy="37.407" rx="2.606" ry="2.64"/><ellipse fill="#FFF3F7" cx="28.934" cy="37.099" rx="2.502" ry="2.331"/><g><ellipse fill="#FF78A5" cx="28.934" cy="45.912" rx="2.606" ry="2.64"/><ellipse fill="#FFF3F7" cx="28.934" cy="45.604" rx="2.502" ry="2.33"/></g><g><ellipse fill="#FF78A5" cx="28.934" cy="54.416" rx="2.606" ry="2.641"/><ellipse fill="#FFF3F7" cx="28.934" cy="54.107" rx="2.502" ry="2.331"/></g><g><g fill="#FFD2DF"><path d="M63.999 11.103l-3.329-1.084-1.188 14.542 3.559-.303zM-.001 11.103l3.331-1.084 1.185 14.542-3.558-.303z"/></g></g><g><path fill="#FFD2DF" d="M31.99 59.051c.002.004.007 0 .011 0h.009c10.729-.163 19.213-1.649 20.564-2.543.066 1.918.147 3.543.242 4.783 0 0-8.912 2.526-20.807 2.708H32c-.004 0-.009.003-.011 0-11.893-.182-20.807-2.708-20.807-2.708.095-1.238.176-2.865.242-4.783 1.351.892 9.838 2.38 20.566 2.543z"/></g><path fill="#FF99B6" d="M31.99 59.071h1.17V64h-1.17z"/></svg>
